dist/img/cart.svg

<svg width="27" height="25" viewBox="0 0 27 25" fill="none" xmlns="http://www.w3.org/2000/svg">
<path d="M21.876 22.2662C21.921 22.2549 21.9423 22.2339 21.96 22.2129C21.9678 22.2037 21.9756 22.1946 21.9835 22.1855C22.02 22.1438 22.0233 22.0553 22.0224 22.0105C22.0092 21.9044 21.9185 21.8315 21.8412 21.8315C21.8375 21.8315 21.8336 21.8317 21.8312 21.8318C21.7531 21.8372 21.6653 21.9409 21.6719 22.0625C21.6813 22.1793 21.7675 22.2662 21.8392 22.2662H21.876ZM8.21954 22.2599C8.31873 22.2599 8.39935 22.1655 8.39935 22.0496C8.39935 21.9341 8.31873 21.8401 8.21954 21.8401C8.12042 21.8401 8.03973 21.9341 8.03973 22.0496C8.03973 22.1655 8.12042 22.2599 8.21954 22.2599ZM21.9995 24.2662C21.9517 24.2662 21.8878 24.2662 21.8392 24.2662C20.7017 24.2662 19.7567 23.3545 19.6765 22.198C19.5964 20.9929 20.4937 19.9183 21.6953 19.8364C21.7441 19.8331 21.7928 19.8315 21.8412 19.8315C22.9799 19.8315 23.9413 20.7324 24.019 21.8884C24.0505 22.4915 23.8741 23.0612 23.4898 23.5012C23.1055 23.9575 22.5764 24.2177 21.9995 24.2662ZM8.21954 24.2599C7.01532 24.2599 6.03973 23.2709 6.03973 22.0496C6.03973 20.8291 7.01532 19.8401 8.21954 19.8401C9.42371 19.8401 10.3994 20.8291 10.3994 22.0496C10.3994 23.2709 9.42371 24.2599 8.21954 24.2599ZM21.1984 17.3938H9.13306C8.70013 17.3938 8.31586 17.1005 8.20331 16.6775L4.27753 2.24768H1.52173C0.993408 2.24768 0.560547 1.80859 0.560547 1.27039C0.560547 0.733032 0.993408 0.292969 1.52173 0.292969H4.99933C5.43134 0.292969 5.81561 0.586304 5.9281 1.01025L9.85394 15.4391H20.5576L24.1144 7.13379H12.2578C11.7286 7.13379 11.2957 6.69373 11.2957 6.15649C11.2957 5.61914 11.7286 5.17908 12.2578 5.17908H25.5886C25.9091 5.17908 26.2141 5.34192 26.3896 5.61914C26.566 5.89539 26.5984 6.23743 26.4697 6.547L22.0795 16.807C21.9193 17.1653 21.5827 17.3938 21.1984 17.3938Z" fill="white"/>
</svg>

<svg width="27" height="25" fill="none" xmlns="http://www.w3.org/2000/svg"><path d="M21.876 22.266a.146.146 0 00.084-.053 3.08 3.08 0 01.023-.027c.037-.042.04-.13.04-.175-.014-.107-.104-.18-.182-.18h-.01c-.078.006-.166.11-.16.232.01.116.096.203.168.203h.037zM8.22 22.26c.099 0 .18-.095.18-.21 0-.116-.081-.21-.18-.21-.1 0-.18.094-.18.21 0 .116.08.21.18.21zM22 24.266h-.16c-1.138 0-2.083-.911-2.163-2.068-.08-1.205.817-2.28 2.018-2.362.05-.003.098-.005.146-.005 1.139 0 2.1.901 2.178 2.057.032.603-.145 1.173-.53 1.613a2.16 2.16 0 01-1.49.765zM8.22 24.26c-1.205 0-2.18-.99-2.18-2.21s.975-2.21 2.18-2.21c1.204 0 2.18.99 2.18 2.21s-.976 2.21-2.18 2.21zm12.978-6.866H9.133a.965.965 0 01-.93-.716L4.278 2.247H1.522A.972.972 0 01.56 1.27c0-.537.432-.977.96-.977H5c.432 0 .817.293.93.717l3.925 14.43h10.704l3.556-8.306H12.258a.973.973 0 01-.962-.978c0-.537.433-.977.962-.977h13.33a.95.95 0 01.802.44 1 1 0 01.08.928l-4.39 10.26a.963.963 0 01-.882.587z" fill="#fff"/></svg>
